Numix/16/status/indicator-keyboard-Ru-6.svg

<?xml version="1.0" encoding="UTF-8" standalone="no"?>
<svg
   xmlns:dc="http://purl.org/dc/elements/1.1/"
   xmlns:cc="http://creativecommons.org/ns#"
   xmlns:rdf="http://www.w3.org/1999/02/22-rdf-syntax-ns#"
   xmlns:svg="http://www.w3.org/2000/svg"
   xmlns="http://www.w3.org/2000/svg"
   xmlns:sodipodi="http://sodipodi.sourceforge.net/DTD/sodipodi-0.dtd"
   xmlns:inkscape="http://www.inkscape.org/namespaces/inkscape"
   viewBox="0 0 16 16"
   id="svg2"
   version="1.1"
   inkscape:version="0.91 r13725"
   sodipodi:docname="indicator-keyboard-Ru-6.svg">
  <metadata
     id="metadata14">
    <rdf:RDF>
      <cc:Work
         rdf:about="">
        <dc:format>image/svg+xml</dc:format>
        <dc:type
           rdf:resource="http://purl.org/dc/dcmitype/StillImage" />
      </cc:Work>
    </rdf:RDF>
  </metadata>
  <defs
     id="defs12" />
  <sodipodi:namedview
     pagecolor="#ffffff"
     bordercolor="#666666"
     borderopacity="1"
     objecttolerance="10"
     gridtolerance="10"
     guidetolerance="10"
     inkscape:pageopacity="0"
     inkscape:pageshadow="2"
     inkscape:window-width="459"
     inkscape:window-height="369"
     id="namedview10"
     showgrid="false"
     inkscape:zoom="14.75"
     inkscape:cx="8"
     inkscape:cy="8"
     inkscape:window-x="65"
     inkscape:window-y="24"
     inkscape:window-maximized="0"
     inkscape:current-layer="svg2" />
  <path
     style="fill:#ececec;fill-opacity:1"
     d="M 1.5996094 0 C 0.71320937 2.9605947e-16 0 0.71320937 0 1.5996094 L 0 14.400391 C 2.9605947e-16 15.286791 0.71320937 16 1.5996094 16 L 14.400391 16 C 15.286791 16 16 15.286791 16 14.400391 L 16 1.5996094 C 16 0.71320937 15.286791 0 14.400391 0 L 1.5996094 0 z M 3.1621094 4.8046875 C 4.0201094 4.8046875 4.6656563 4.9670156 5.0976562 5.2910156 C 5.5356562 5.6150156 5.7539062 6.0944688 5.7539062 6.7304688 C 5.7539062 7.1984687 5.6307656 7.5678906 5.3847656 7.8378906 C 5.1387656 8.1078906 4.8141094 8.3038281 4.4121094 8.4238281 C 4.5081094 8.5438281 4.63125 8.7042031 4.78125 8.9082031 C 4.93725 9.1122031 5.0977656 9.3379844 5.2597656 9.5839844 C 5.4217656 9.8239844 5.5803281 10.075844 5.7363281 10.339844 C 5.8923281 10.603844 6.0248125 10.855703 6.1328125 11.095703 L 5.4746094 11.095703 C 5.3486094 10.855703 5.2105469 10.616953 5.0605469 10.376953 C 4.9165469 10.136953 4.7673281 9.9055939 4.6113281 9.6835938 C 4.4613281 9.4555937 4.3139219 9.2447344 4.1699219 9.0527344 L 3.7910156 8.5488281 C 3.5990156 8.5668281 3.4087969 8.5761719 3.2167969 8.5761719 L 2.2070312 8.5761719 L 2.2070312 11.095703 L 1.5957031 11.095703 L 1.5957031 4.9765625 C 1.8117031 4.9165625 2.0635625 4.8736094 2.3515625 4.8496094 C 2.6455625 4.8196094 2.9161094 4.8046875 3.1621094 4.8046875 z M 3.234375 5.3359375 C 3.006375 5.3359375 2.8048594 5.3452813 2.6308594 5.3632812 C 2.4628594 5.3752812 2.3210312 5.3864375 2.2070312 5.3984375 L 2.2070312 8.0546875 L 3.0546875 8.0546875 C 3.3366875 8.0546875 3.6034688 8.0415781 3.8554688 8.0175781 C 4.1074687 7.9875781 4.3257188 7.9278906 4.5117188 7.8378906 C 4.6977187 7.7418906 4.845125 7.6075938 4.953125 7.4335938 C 5.061125 7.2595938 5.1152344 7.0226562 5.1152344 6.7226562 C 5.1152344 6.4466563 5.061125 6.2171094 4.953125 6.0371094 C 4.845125 5.8571094 4.7032969 5.7172344 4.5292969 5.6152344 C 4.3552969 5.5072344 4.1557344 5.4344375 3.9277344 5.3984375 C 3.7057344 5.3564375 3.474375 5.3359375 3.234375 5.3359375 z M 7.0605469 6.4433594 L 7.6464844 6.4433594 L 7.6464844 8.8632812 C 7.6464844 9.1932813 7.6687969 9.4731719 7.7167969 9.7011719 C 7.7647969 9.9291721 7.8431719 10.115766 7.9511719 10.259766 C 8.0591719 10.397766 8.1972344 10.498453 8.3652344 10.564453 C 8.5392344 10.624453 8.7500937 10.654297 8.9960938 10.654297 C 9.2720938 10.654297 9.5108437 10.639375 9.7148438 10.609375 C 9.918844 10.579375 10.047563 10.553297 10.101562 10.529297 L 10.101562 6.4433594 L 10.6875 6.4433594 L 10.6875 10.933594 C 10.5135 10.981594 10.280328 11.035703 9.9863281 11.095703 C 9.6923281 11.155703 9.33225 11.185547 8.90625 11.185547 C 8.55825 11.185547 8.2672031 11.135203 8.0332031 11.033203 C 7.7992031 10.931203 7.6088437 10.787562 7.4648438 10.601562 C 7.3208437 10.415563 7.2163906 10.189781 7.1503906 9.9257812 C 7.0903906 9.6617813 7.0605469 9.3707344 7.0605469 9.0527344 L 7.0605469 6.4433594 z M 14.134766 8.8242188 L 14.158203 9.1464844 C 13.920303 9.1620844 13.700847 9.1993125 13.498047 9.2578125 C 13.299147 9.3124125 13.120844 9.4005844 12.964844 9.5214844 C 12.808844 9.6384843 12.677566 9.7893625 12.572266 9.9765625 C 12.466966 10.163763 12.396422 10.394969 12.357422 10.667969 C 12.462722 10.613369 12.588128 10.566344 12.736328 10.527344 C 12.884528 10.484444 13.043237 10.462891 13.210938 10.462891 C 13.429338 10.462891 13.613525 10.498159 13.765625 10.568359 C 13.917725 10.634659 14.041166 10.722838 14.134766 10.835938 C 14.228366 10.949038 14.296944 11.080316 14.339844 11.228516 C 14.382744 11.376716 14.404297 11.533466 14.404297 11.697266 C 14.404297 11.849366 14.380784 12.000244 14.333984 12.152344 C 14.287184 12.304444 14.212728 12.443559 14.111328 12.568359 C 14.013828 12.689259 13.888428 12.789187 13.736328 12.867188 C 13.588128 12.945188 13.411778 12.984375 13.205078 12.984375 C 12.779978 12.984375 12.456675 12.835463 12.234375 12.539062 C 12.015975 12.238762 11.90625 11.821409 11.90625 11.287109 C 11.90625 10.495409 12.096309 9.8958281 12.474609 9.4863281 C 12.856809 9.0768281 13.409366 8.8554188 14.134766 8.8242188 z M 13.175781 10.794922 C 12.996381 10.794922 12.837672 10.816475 12.701172 10.859375 C 12.568572 10.898375 12.445125 10.9454 12.328125 11 C 12.320325 11.0663 12.316406 11.119203 12.316406 11.158203 L 12.316406 11.292969 C 12.316406 11.476269 12.328162 11.650653 12.351562 11.814453 C 12.378863 11.978253 12.425887 12.121294 12.492188 12.246094 C 12.562388 12.370894 12.652525 12.470822 12.765625 12.544922 C 12.878725 12.615122 13.023719 12.650391 13.199219 12.650391 C 13.343519 12.650391 13.466959 12.624919 13.568359 12.574219 C 13.669759 12.519619 13.7501 12.449081 13.8125 12.363281 C 13.8749 12.277481 13.919966 12.177553 13.947266 12.064453 C 13.978466 11.951353 13.994141 11.833784 13.994141 11.708984 C 13.994141 11.396984 13.923603 11.165778 13.783203 11.017578 C 13.646703 10.869378 13.444881 10.794922 13.175781 10.794922 z "
     id="path4" />
</svg>

<svg xmlns="http://www.w3.org/2000/svg" viewBox="0 0 16 16">
 <path d="m 1.6 0 c -0.886 0 -1.6 0.713 -1.6 1.6 l 0 12.801 c 0 0.886 0.713 1.6 1.6 1.6 l 12.801 0 c 0.886 0 1.6 -0.713 1.6 -1.6 l 0 -12.801 c 0 -0.886 -0.713 -1.6 -1.6 -1.6 l -12.801 0 z m 1.562 4.805 c 0.858 0 1.504 0.162 1.936 0.486 c 0.438 0.324 0.656 0.803 0.656 1.439 c 0 0.468 -0.123 0.837 -0.369 1.107 c -0.246 0.27 -0.571 0.466 -0.973 0.586 c 0.096 0.12 0.219 0.28 0.369 0.484 c 0.156 0.204 0.317 0.43 0.479 0.676 c 0.162 0.24 0.321 0.492 0.477 0.756 c 0.156 0.264 0.288 0.516 0.396 0.756 l -0.658 0 c -0.126 -0.24 -0.264 -0.479 -0.414 -0.719 c -0.144 -0.24 -0.293 -0.471 -0.449 -0.693 c -0.15 -0.228 -0.297 -0.439 -0.441 -0.631 l -0.379 -0.504 c -0.192 0.018 -0.382 0.027 -0.574 0.027 l -1.01 0 l 0 2.52 l -0.611 0 l 0 -6.119 c 0.216 -0.06 0.468 -0.103 0.756 -0.127 c 0.294 -0.03 0.565 -0.045 0.811 -0.045 z m 0.072 0.531 c -0.228 0 -0.43 0.009 -0.604 0.027 c -0.168 0.012 -0.31 0.023 -0.424 0.035 l 0 2.656 l 0.848 0 c 0.282 0 0.549 -0.013 0.801 -0.037 c 0.252 -0.03 0.47 -0.09 0.656 -0.18 c 0.186 -0.096 0.333 -0.23 0.441 -0.404 c 0.108 -0.174 0.162 -0.411 0.162 -0.711 c 0 -0.276 -0.054 -0.506 -0.162 -0.686 c -0.108 -0.18 -0.25 -0.32 -0.424 -0.422 c -0.174 -0.108 -0.374 -0.181 -0.602 -0.217 c -0.222 -0.042 -0.453 -0.063 -0.693 -0.063 z m 3.826 1.107 l 0.586 0 l 0 2.42 c 0 0.33 0.022 0.61 0.07 0.838 c 0.048 0.228 0.126 0.415 0.234 0.559 c 0.108 0.138 0.246 0.239 0.414 0.305 c 0.174 0.06 0.385 0.09 0.631 0.09 c 0.276 0 0.515 -0.015 0.719 -0.045 c 0.204 -0.03 0.333 -0.056 0.387 -0.08 l 0 -4.086 l 0.586 0 l 0 4.49 c -0.174 0.048 -0.407 0.102 -0.701 0.162 c -0.294 0.06 -0.654 0.09 -1.08 0.09 c -0.348 0 -0.639 -0.05 -0.873 -0.152 c -0.234 -0.102 -0.424 -0.246 -0.568 -0.432 c -0.144 -0.186 -0.248 -0.412 -0.314 -0.676 c -0.06 -0.264 -0.09 -0.555 -0.09 -0.873 l 0 -2.609 z m 7.07 2.381 l 0.023 0.322 c -0.238 0.016 -0.457 0.053 -0.66 0.111 c -0.199 0.055 -0.377 0.143 -0.533 0.264 c -0.156 0.117 -0.287 0.268 -0.393 0.455 c -0.105 0.187 -0.176 0.418 -0.215 0.691 c 0.105 -0.055 0.231 -0.102 0.379 -0.141 c 0.148 -0.043 0.307 -0.064 0.475 -0.064 c 0.218 0 0.403 0.035 0.555 0.105 c 0.152 0.066 0.276 0.154 0.369 0.268 c 0.094 0.113 0.162 0.244 0.205 0.393 c 0.043 0.148 0.064 0.305 0.064 0.469 c 0 0.152 -0.024 0.303 -0.07 0.455 c -0.047 0.152 -0.121 0.291 -0.223 0.416 c -0.098 0.121 -0.223 0.221 -0.375 0.299 c -0.148 0.078 -0.325 0.117 -0.531 0.117 c -0.425 0 -0.748 -0.149 -0.971 -0.445 c -0.218 -0.3 -0.328 -0.718 -0.328 -1.252 c 0 -0.792 0.19 -1.391 0.568 -1.801 c 0.382 -0.409 0.935 -0.631 1.66 -0.662 z m -0.959 1.971 c -0.179 0 -0.338 0.022 -0.475 0.064 c -0.133 0.039 -0.256 0.086 -0.373 0.141 c -0.008 0.066 -0.012 0.119 -0.012 0.158 l 0 0.135 c 0 0.183 0.012 0.358 0.035 0.521 c 0.027 0.164 0.074 0.307 0.141 0.432 c 0.07 0.125 0.16 0.225 0.273 0.299 c 0.113 0.07 0.258 0.105 0.434 0.105 c 0.144 0 0.268 -0.025 0.369 -0.076 c 0.101 -0.055 0.182 -0.125 0.244 -0.211 c 0.062 -0.086 0.107 -0.186 0.135 -0.299 c 0.031 -0.113 0.047 -0.231 0.047 -0.355 c 0 -0.312 -0.071 -0.543 -0.211 -0.691 c -0.136 -0.148 -0.338 -0.223 -0.607 -0.223 z" style="fill:#ececec;fill-opacity:1"/>
</svg>
